X:1
T:Title
%%score { ( 1 3 ) | 2 }
L:1/8
Q:1/4=110
M:4/4
K:Ab
V:1 treble nm="Grand Piano"
V:3 treble 
V:2 bass 
V:1
 c2 z2 B2 z G | [CA]2 [Ec]2 [CE]4 | [DF]2 [EG]2 [FA]2 [DF]2 | [DF]4 [CE]2 z2 | c2 c2 B3 G | %5
w: G.~R.~Root * *|||||
 [CA]2 [Ec]2 [CE]4 | [DF]2 [FB]2 [EA]2 [DG]2 | [CA]4 [CA]2 z2 | E2 B2 B2 c2 | [DB]2 [CA]2 [CA]4 | %10
w: |||||
 E2 d2 d2 e2 | d2 c2 c4 | e2 c2 A2 E2 |[M:5/4] F2 [FA]2 [Fd]6 |[M:4/4] c3 B A2 G2 | %15
w: |||||
[M:3/4] [A,CA]6 |[M:1/4] z2 |[M:4/4] z4 e4 | z4 e4 | e2 gf edcB | z4 [cea]4 |] %21
w: ||||||
V:2
 [A,E]2 z2 [E,G,D]2 z [E,B,D] | [A,,A,]2 [A,,A,]2 [A,,A,]4 | [D,A,]2 [D,A,]2 [D,A,]2 [D,A,]2 | %3
 [A,,A,]4 [A,,A,]2 z2 | [A,E]2 [A,E]2 [E,G,D]3 [E,B,D] | [A,,A,]2 [A,,A,]2 [A,,A,]4 | %6
 [D,A,]2 [D,D]2 [E,C]2 [E,B,]2 | [A,,A,]4 [A,,A,]2 z2 | [E,G,D]2 [E,G,D]2 [E,G,D]2 [E,G,E]2 | %9
 [A,,A,]2 [A,,A,]2 [A,,A,]4 | [E,G,]2 [E,B,E]2 [E,B,E]2 [E,CE]2 | [A,B,E]2 [A,E]2 [A,E]4 | %12
 [A,CE]2 [A,E]2 [A,C]2 [A,C]2 |[M:5/4] [D,A,D]2 [D,A,]2 [D,A,]6 | %14
[M:4/4] [E,A,E]3 [E,DE] [E,CE]2 [E,B,D]2 |[M:3/4] A,,6 |[M:1/4][K:treble] Ac | %17
[M:4/4][K:bass] E,2 [G,B,D]2 E,2 [G,B,]2 | [A,,A,]2 [E,A,C]2 [A,,A,]2 [E,A,]2 | %19
 [E,G,B,D]2 [E,G,B,D]2 [E,G,B,D]2 [E,G,CD]2 | [A,C]2 A,2 A,,4 |] %21
V:3
 x8 | x8 | x8 | x8 | x8 | x8 | x8 | x8 | x8 | x8 | x8 | x8 | x8 |[M:5/4] x10 |[M:4/4] x8 | %15
[M:3/4] x6 |[M:1/4] x2 |[M:4/4] e2 E2 z2 D2 | e2 E2 z2 C2 | x8 | A8 |] %21

